static/img/ruby.svg

<svg width="512" height="512" viewBox="0 0 512 512" fill="none"
	xmlns="http://www.w3.org/2000/svg">
	<path d="M493.725 160.831C493.704 161.03 493.683 161.239 493.662 161.447C492.251 174.101 488.26 187.716 481.886 201.843L481.876 201.853L371.66 482.304L76.4549 413.069C72.8289 412.358 69.3079 411.533 65.9019 410.593C59.1209 408.754 52.8089 406.507 46.9999 403.864C46.9999 403.864 46.9999 403.864 46.9899 403.864C29.2479 378.818 15.8829 350.449 8.03589 319.875C8.91389 316.207 10.3239 310.544 12.1839 303.585C19.3519 276.742 33.2799 230.735 50.0199 206.545L51.6499 262.51L161.949 269.866L311.463 198.782L376.006 104.01L347.418 58.2539C395.107 69.8209 425.326 80.2699 444.353 88.5139C447.509 89.8719 450.351 91.1779 452.911 92.4109C472.022 101.637 475.69 107.249 475.69 107.249C481.991 112.557 486.714 118.785 489.587 125.911C493.767 136.255 495.073 148.052 493.725 160.831Z" fill="#9B0A0E"/>
	<path d="M356.676 83.7779C338.138 47.2626 256.329 51.564 173.952 93.3855C91.5748 135.207 39.823 198.712 58.3611 235.227C76.8993 271.742 158.708 267.441 241.085 225.619C323.462 183.798 375.214 120.293 356.676 83.7779Z" fill="#EF0E13"/>
	<path d="M301.18 369.117L371.656 482.308L186.004 409.438C222.656 401.872 262.012 388.497 301.18 369.117Z" fill="#F5655E"/>
	<path d="M50.0191 206.546L51.6531 262.512L12.1831 303.584C19.3561 276.744 33.2781 230.737 50.0191 206.546Z" fill="#F5655E"/>
	<path d="M51.6489 262.51L17.7629 349.884C13.9279 340.156 10.6679 330.146 8.03491 319.875C8.03491 319.875 8.03491 319.875 8.03491 319.865C8.92291 316.197 10.3229 310.534 12.1829 303.586L51.6489 262.51Z" fill="#950C10"/>
	<path d="M376.012 104.009L493.663 161.446C492.249 174.102 488.263 187.714 481.882 201.848L481.874 201.856C477.103 212.445 470.983 223.328 463.613 234.308L376.012 104.009Z" fill="#950C10"/>
	<path d="M481.873 201.856L371.657 482.306L399.885 304.432C426.307 281.825 447.836 257.837 463.613 234.307C470.983 223.326 477.101 212.443 481.873 201.856Z" fill="#EF0E13"/>
	<path d="M376.012 104.009L463.613 234.308L311.466 198.785L376.012 104.009Z" fill="#EF0E13"/>
	<path d="M444.355 88.51L376.011 104.009L347.415 58.248C395.105 69.825 425.327 80.267 444.355 88.51Z" fill="#F5655E"/>
	<path d="M311.466 198.785L399.884 304.435C373.29 327.197 341.745 348.562 306.098 366.66C304.455 367.494 302.822 368.31 301.18 369.12L311.466 198.785Z" fill="#950C10"/>
	<path d="M311.466 198.785L301.18 369.117L161.951 269.865L311.466 198.785Z" fill="#EF0E13"/>
	<path d="M161.951 269.865L301.179 369.117C262.011 388.497 222.655 401.871 186.003 409.438L161.951 269.865Z" fill="#950C10"/>
	<path d="M161.951 269.865L65.9021 410.598L51.6531 262.512L161.951 269.865Z" fill="#F5655E"/>
</svg>

<?xml version="1.0" encoding="iso-8859-1"?>
<!-- Generator: Adobe Illustrator 19.0.0, SVG Export Plug-In . SVG Version: 6.00 Build 0)  -->
<svg version="1.1" id="Capa_1" xmlns="http://www.w3.org/2000/svg" xmlns:xlink="http://www.w3.org/1999/xlink" x="0px" y="0px"
	 viewBox="0 0 512 512" style="enable-background:new 0 0 512 512;" xml:space="preserve">
<path style="fill:#F2F2F2;" d="M512,256c0,141.385-114.615,256-256,256c-86.298,0-162.628-42.705-209-108.136c0,0,0,0-0.01,0
	c-11.786-16.635-21.64-34.732-29.226-53.979c-3.835-9.728-7.095-19.738-9.728-30.009c0,0,0,0,0-0.01C2.79,299.447,0,278.047,0,256
	C0,114.615,114.615,0,256,0c79.182,0,149.964,35.944,196.911,92.411c16.959,20.376,30.804,43.426,40.814,68.42
	C505.511,190.255,512,222.375,512,256z"/>
<path style="fill:#9B0A0E;" d="M493.725,160.831c-0.021,0.199-0.042,0.408-0.063,0.616c-1.411,12.654-5.402,26.269-11.776,40.396
	l-0.01,0.01L371.66,482.304L76.455,413.069c-3.626-0.711-7.147-1.536-10.553-2.476c-6.781-1.839-13.093-4.086-18.902-6.729
	c0,0,0,0-0.01,0c-17.742-25.046-31.107-53.415-38.954-83.989c0.878-3.668,2.288-9.331,4.148-16.29
	c7.168-26.843,21.096-72.85,37.836-97.04l1.63,55.965l110.299,7.356l149.514-71.084l64.543-94.772l-28.588-45.756
	c47.689,11.567,77.908,22.016,96.935,30.26c3.156,1.358,5.998,2.664,8.558,3.897c19.111,9.226,22.779,14.838,22.779,14.838
	c6.301,5.308,11.024,11.536,13.897,18.662C493.767,136.255,495.073,148.052,493.725,160.831z"/>
<ellipse transform="matrix(-0.4527 -0.8917 0.8917 -0.4527 159.2264 416.755)" style="fill:#EF0E13;" cx="207.517" cy="159.51" rx="74.147" ry="167.273"/>
<g>
	<path style="fill:#F5655E;" d="M301.18,369.117l70.476,113.191l-185.652-72.87C222.656,401.872,262.012,388.497,301.18,369.117z"/>
	<path style="fill:#F5655E;" d="M50.019,206.546l1.634,55.966l-39.47,41.072C19.356,276.744,33.278,230.737,50.019,206.546z"/>
</g>
<g>
	<path style="fill:#950C10;" d="M51.649,262.51l-33.886,87.374c-3.835-9.728-7.095-19.738-9.728-30.009c0,0,0,0,0-0.01
		c0.888-3.668,2.288-9.331,4.148-16.279L51.649,262.51z"/>
	<path style="fill:#950C10;" d="M376.012,104.009l117.651,57.437c-1.414,12.656-5.4,26.268-11.781,40.402l-0.008,0.008
		c-4.771,10.589-10.891,21.472-18.261,32.452L376.012,104.009z"/>
</g>
<g>
	<path style="fill:#EF0E13;" d="M481.873,201.857L371.657,482.307l28.228-177.874c26.422-22.607,47.951-46.595,63.728-70.125
		C470.983,223.327,477.101,212.444,481.873,201.857z"/>
	<polygon style="fill:#EF0E13;" points="376.012,104.009 463.613,234.308 311.466,198.785 	"/>
</g>
<path style="fill:#F5655E;" d="M444.355,88.51l-68.344,15.499l-28.596-45.761C395.105,69.825,425.327,80.267,444.355,88.51z"/>
<path style="fill:#950C10;" d="M311.466,198.785l88.418,105.65c-26.594,22.762-58.139,44.127-93.786,62.225
	c-1.643,0.834-3.276,1.65-4.918,2.46L311.466,198.785z"/>
<polygon style="fill:#EF0E13;" points="311.466,198.785 301.18,369.117 161.951,269.865 "/>
<path style="fill:#950C10;" d="M161.951,269.865l139.228,99.252c-39.168,19.38-78.524,32.754-115.176,40.321L161.951,269.865z"/>
<polygon style="fill:#F5655E;" points="161.951,269.865 65.902,410.598 51.653,262.512 "/>
<g>
</g>
<g>
</g>
<g>
</g>
<g>
</g>
<g>
</g>
<g>
</g>
<g>
</g>
<g>
</g>
<g>
</g>
<g>
</g>
<g>
</g>
<g>
</g>
<g>
</g>
<g>
</g>
<g>
</g>
</svg>
